apps/frontend/src/assets/img/bg/uuundulate.svg

<svg xmlns="http://www.w3.org/2000/svg" version="1.1" xmlns:xlink="http://www.w3.org/1999/xlink" xmlns:svgjs="http://svgjs.dev/svgjs" viewBox="0 0 800 800" opacity="1"><defs><linearGradient x1="50%" y1="0%" x2="50%" y2="100%" id="uundulate-grad"><stop stop-color="hsl(1.4, 100%, 67%)" stop-opacity="1" offset="45%"></stop><stop stop-color="hsl(167, 52%, 78%)" stop-opacity="1" offset="100%"></stop></linearGradient></defs><g stroke-width="3" stroke="url(#uundulate-grad)" fill="none"><path d="M1132.0287964669726 -336.1253019024998C1293.4124756755427 8.303683870670739 1037.9050293259127 1062.9991257139116 736.784311698121 1295.3831431741355C435.6635940703293 1527.7671606343592 -151.96696893785554 1123.7469676797455 -313.3506481464258 779.3179819065747C-474.734327354996 434.88899613340413 -338.97806613080996 -125.49197107685848 -37.85734850301833 -357.8759885370823C263.26336912477336 -590.2600059973062 970.6451172584023 -680.5542876756703 1132.0287964669726 -336.1253019024998C1293.4124756755427 8.303683870670739 1037.9050293259127 1062.9991257139116 736.784311698121 1295.3831431741355 "></path><path d="M1100.20147075866 -304.11984337888566C1254.5684682625097 25.333969099799106 1010.1700413193851 1034.1730873846382 722.1415288058454 1256.4534519118088C434.1130162923055 1478.7338164389794 -127.96839180248003 1092.2797188302184 -282.33538930632983 762.8259063515334C-436.70238681017963 433.3720938728484 -306.8485717261756 -102.6444834587071 -18.82005921263567 -324.9248479858777C269.20845330090424 -547.2052125130483 945.8344732548101 -633.5736558575704 1100.20147075866 -304.11984337888566C1254.5684682625097 25.333969099799106 1010.1700413193851 1034.1730873846382 722.1415288058454 1256.4534519118088 "></path><path d="M1068.3741450503471 -272.11432382011526C1215.7244608494766 42.364315364083836 982.4350533128577 1005.3471100905213 707.4987459135696 1217.5238216846383C432.56243851428144 1429.7005332787558 -103.96981466710452 1060.8125310158475 -251.32013046623388 746.3338918316485C-398.67044626536324 431.8552526474491 -274.7190773215412 -79.79693480539936 0.2172300777468763 -291.9736463995167C275.1535374770349 -504.15035799363415 921.0238292512179 -586.5929630043145 1068.3741450503471 -272.11432382011526C1215.7244608494766 42.364315364083836 982.4350533128577 1005.3471100905213 707.4987459135696 1217.5238216846383 "></path><path d="M1036.5468193420347 -240.10895684923548C1176.8804534364435 59.39450904047794 954.7000653063303 976.5209802085135 692.855963021294 1178.5940388695776C431.01186073625786 1380.667097530642 -79.971237531729 1029.3451906135863 -220.30487162613792 729.8417247238726C-360.6385057205468 430.3382588341592 -242.5895829169068 -56.949538739982245 19.254519368129422 -259.0225974010465C281.09862165316565 -461.09565606211066 896.2131852476257 -539.612422738949 1036.5468193420347 -240.10895684923548C1176.8804534364435 59.39450904047794 954.7000653063303 976.5209802085135 692.855963021294 1178.5940388695776 "></path><path d="M1004.7194020809875 -208.1034678080432C1138.0363544706759 76.42482478718443 926.9649857470683 947.6949723968182 678.213088576284 1139.6643781248292C429.46119140549945 1331.6337838528398 -55.972751949087865 997.8779722816373 -189.28970433877635 713.3496796864094C-322.60665672846477 428.8213870911818 -210.46018006500674 -34.10202060425263 38.29171710577771 -226.07142633226363C287.04361427656215 -418.0408320602747 871.4024496912989 -492.6317604032711 1004.7194020809875 -208.1034678080432C1138.0363544706759 76.42482478718443 926.9649857470683 947.6949723968182 678.213088576284 1139.6643781248292 "></path><path d="M972.8920763726749 -176.09797876685104C1099.192347057643 93.45514053389115 899.2299977405412 918.8689645851232 663.5703056840084 1100.7347173800806C427.91061362747575 1282.6004701750385 -31.974174813712352 966.4107539496886 -158.2744454986804 696.8576346489465C-284.5747161836484 427.3045153482044 -178.33068566037235 -11.254502468523015 57.32900639616025 -193.12025526348089C292.9886984526929 -374.98600805843864 846.5918056877069 -445.6510980675932 972.8920763726749 -176.09797876685104C1099.192347057643 93.45514053389115 899.2299977405412 918.8689645851232 663.5703056840084 1100.7347173800806 "></path><path d="M941.0647506643622 -144.0926423135494C1060.3483396446097 110.48530369270702 871.4950097340136 890.0428041855373 648.9275227917328 1061.8049040474416C426.36003584945195 1233.5670039093463 -7.97559767833684 934.943383029849 -127.25918665858438 680.3654370235924C-246.54277563883198 425.7874910173359 -146.20119125573797 11.592863079315862 76.36629568654291 -160.16923678258865C298.9337826288238 -331.9313366444933 821.7811616841145 -398.67058831980586 941.0647506643622 -144.0926423135494C1060.3483396446097 110.48530369270702 871.4950097340136 890.0428041855373 648.9275227917328 1061.8049040474416 "></path><path d="M909.2373944384715 -112.0871227547791C1021.5043017139985 127.51564995699164 843.7599912099081 861.2168268914202 634.2847093818791 1022.8752738202713C424.80942755385 1184.5337207491227 16.022948939460548 903.4761952154784 -96.24395833606656 663.8734225037074C-208.51086561159372 424.27064979193665 -114.07172736868165 34.4404117326236 95.40355445934733 -127.21803519622779C304.8788362873763 -288.8764821250792 796.9704871629442 -351.68989546654984 909.2373944384715 -112.0871227547791C1021.5043017139985 127.51564995699164 843.7599912099081 861.2168268914202 634.2847093818791 1022.8752738202713 "></path><path d="M877.410099247737 -80.08169474874308C982.6603248185436 144.5459046685421 816.0250337209586 832.3907580445684 619.6419570071814 983.9455520403667C423.2588802934042 1135.500346036165 40.021556592414186 872.0089158483731 -65.22866897839248 647.3813164310882C-170.4788945491992 422.753717013803 -81.94220244646914 57.28786883319685 114.440874267308 -94.26692516260124C310.8239509810852 -245.8217191583994 772.1598736769301 -304.70929416602814 877.410099247737 -80.08169474874308C982.6603248185436 144.5459046685421 816.0250337209586 832.3907580445684 619.6419570071814 983.9455520403667 "></path><path d="M845.5827735394241 -48.0762057075508C943.8163174055103 161.5762204152486 788.290045714431 803.5647502328734 604.9991741149058 945.0158912956183C421.7083025153804 1086.4670323583634 64.0201337277897 840.5416975164244 -34.213410138296524 630.8892713936248C-132.44695400438275 421.2368452708256 -49.81270804183475 80.13538696892647 133.47816355769066 -61.31575409381844C316.76903515721597 -202.7668951565634 747.349229673338 -257.72863183035025 845.5827735394241 -48.0762057075508C943.8163174055103 161.5762204152486 788.290045714431 803.5647502328734 604.9991741149058 945.0158912956183 "></path><path d="M813.7554478311117 -16.07077770151477C904.9723099924772 178.60647512679895 760.5550577079039 774.7386813860221 590.3563912226301 906.0861695157137C420.1577247373566 1037.4336576454054 88.01871086316521 809.0744181493192 -3.198151298200571 614.3971653210056C-94.41501345956635 419.7199124926917 -17.683213637200367 102.98284406949983 152.5154528480732 -28.364644060191893C322.71411933334684 -159.71213218988368 722.5385856697458 -210.74803052982855 813.7554478311117 -16.07077770151477C904.9723099924772 178.60647512679895 760.5550577079039 774.7386813860221 590.3563912226301 906.0861695157137 "></path><path d="M781.9281221227989 15.934650304521199C866.1283025794442 195.6367298383493 732.8200697013763 745.9126125391706 575.7136083303545 867.156447735809C418.6071469593328 988.4002829324477 112.01728799854072 777.6071387822142 27.817107541895382 597.9050592483861C-56.38307291474996 418.20297971455807 14.446280767434075 125.8303011700732 171.55274213845587 4.586465973434656C328.6592035094776 -116.65736922320389 697.7279416661536 -163.7674292293069 781.9281221227989 15.934650304521199C866.1283025794442 195.6367298383493 732.8200697013763 745.9126125391706 575.7136083303545 867.156447735809 "></path><path d="M750.1007658969081 47.94007831055717C827.284264648833 212.66698454989955 705.0850511772705 717.0865436923191 561.0707949205008 828.2267259559044C417.05653866373086 939.3669082194897 136.0158346163381 746.1398594151092 58.83233586441321 581.4129531757667C-18.35116288751169 416.6860469364242 46.575744654490336 148.67775827064645 190.5900009112603 37.53757600706115C334.60425716803024 -73.60260625652415 672.9172671449832 -116.78682792878521 750.1007658969081 47.94007831055717C827.284264648833 212.66698454989955 705.0850511772705 717.0865436923191 561.0707949205008 828.2267259559044 "></path><path d="M718.2733791534392 79.94556735174945C788.4401962006436 229.69730029660616 677.350002135587 688.260535880624 546.4279509930689 789.297065211156C415.5058998505508 890.3335945416882 160.01435071655737 714.6726410831602 89.84753366935291 564.9209081383035C19.680716622148452 415.1691751934468 78.70517802396847 171.52527640637607 209.6272291664866 70.48874707584395C340.54928030900464 -30.547782254688116 648.1065621062347 -69.80616559310732 718.2733791534392 79.94556735174945C788.4401962006436 229.69730029660616 677.350002135587 688.260535880624 546.4279509930689 789.297065211156 "></path><path d="M686.4460229275484 111.95102587536354C749.5961582700324 246.72758552573464 649.6149836114815 659.4344975513507 531.7851375832151 750.3673739488295C413.9552915549489 841.3002503463083 184.01289733435476 683.2053922336333 120.86276199187074 548.4288325832623C57.71262664938672 413.65227293289126 110.83464191102473 194.37276402452756 228.66448793929106 103.43988762704862C346.4943339675574 12.507011229569741 623.2958875850644 -22.8255337750075 686.4460229275484 111.95102587536354C749.5961582700324 246.72758552573464 649.6149836114815 659.4344975513507 531.7851375832151 750.3673739488295 "></path><path d="M654.6186972192357 143.9564538813995C710.7521508569993 263.7578402372849 621.879995604954 630.6084287044991 517.1423546909396 711.4376521689247C412.40471377692506 792.2668756333505 208.01147446973027 651.7381128665282 151.8780208319667 531.9367265106428C95.74456719420317 412.1353401547574 142.96413631565918 217.2202211251008 247.70177722967367 136.39099766067517C352.43941814368816 55.56177419624947 598.4852435814721 24.15506752551414 654.6186972192357 143.9564538813995C710.7521508569993 263.7578402372849 621.879995604954 630.6084287044991 517.1423546909396 711.4376521689247 "></path><path d="M622.791371510923 175.96188188743554C671.9081434439661 280.78809494883524 594.1450075984264 601.7823598576476 502.49957179866385 672.5079303890201C410.85413599890114 743.2335009203927 232.0100516051058 620.2708334994231 182.89327967206265 515.4446204380233C133.77650773901956 410.61840737662374 175.09363072029356 240.06767822567417 266.73906652005627 169.34210769430172C358.3845023198189 98.61653716292926 573.6745995778799 71.13566882603584 622.791371510923 175.96188188743554C671.9081434439661 280.78809494883524 594.1450075984264 601.7823598576476 502.49957179866385 672.5079303890201 "></path><path d="M590.9640458026104 207.96734041104963C633.064136030933 297.8183801779637 566.4100195918991 572.9563215283744 487.85678890638815 633.5782391266936C409.30355822087733 694.2001567250129 256.0086287404813 588.8035846498962 213.90853851215866 498.9525448829821C171.80844828383596 409.1015051160681 207.22312512492795 262.91516584382566 285.7763558104389 202.2932482455064C364.3295864959498 141.67133064718712 548.8639555742877 118.1163006441356 590.9640458026104 207.96734041104963C633.064136030933 297.8183801779637 566.4100195918991 572.9563215283744 487.85678890638815 633.5782391266936 "></path><path d="M559.1366895767196 239.97276841708566C594.2200981003218 314.848634889514 538.6750010677936 544.130252681523 473.21397549653443 594.6485173467889C407.7529499252754 645.166782012055 280.0071753582787 557.336305282791 244.92376683467648 482.4604388103627C209.84035831107423 407.58457233793433 239.35258901198426 285.76262294439897 304.8136145832433 235.24435827913294C370.2746401545023 184.72609361386685 524.0532810531174 165.0969019446573 559.1366895767196 239.97276841708566C594.2200981003218 314.848634889514 538.6750010677936 544.130252681523 473.21397549653443 594.6485173467889 "></path><path d="M527.309363868407 271.97822694069976C555.3760906872888 331.87892011864244 510.9400130612661 515.3042143522496 458.57119260425884 555.7188260844623C406.2023721472516 596.1334378166753 304.0057524936542 525.8690564332642 275.93902567477244 465.9683632553214C247.87229885589062 406.0676700773787 271.48208341661865 308.6101105625504 323.8509038736259 268.19549883033756C376.21972433063314 227.78088709812477 499.2426370495251 212.07753376275707 527.309363868407 271.97822694069976C555.3760906872888 331.87892011864244 510.9400130612661 515.3042143522496 458.57119260425884 555.7188260844623 "></path><path d="M495.4820229013052 303.9836549467358C516.5320680154665 348.9091748301928 483.20500979594954 486.47814550539806 443.9283944531941 516.7891043045577C404.65177911043867 547.1000631037174 328.00431437024065 494.40177706615896 306.95426925607933 449.47625718270206C285.904224141918 404.550737299245 303.611562562464 331.45756766312377 342.88817790521944 301.1466088639641C382.1647932479749 270.8356500648045 474.43197778714386 259.05813506327877 495.4820229013052 303.9836549467358C516.5320680154665 348.9091748301928 483.20500979594954 486.47814550539806 443.9283944531941 516.7891043045577 "></path><path d="M463.6546819342035 335.9890982115608C477.6880453436444 365.93944480053216 455.47000653063304 457.6520919173357 429.2855963021294 477.8593977834421C403.1011860736258 498.0667036495486 352.0028762468271 462.934512957843 337.9695128373862 432.9841663688716C323.93614942794534 403.0338197799003 335.7410417083093 354.30504002248614 361.9254519368129 334.0977341563797C388.1098621653166 313.8904282902733 449.62131852476256 306.0387516225895 463.6546819342035 335.9890982115608C477.6880453436444 365.93944480053216 455.47000653063304 457.6520919173357 429.2855963021294 477.8593977834421 "></path><path d="M431.82734096710175 367.9945414763859C438.8440226718222 382.9697147708716 427.7350032653165 428.82603832927333 414.6427981510647 438.9296912623265C401.55059303681287 449.03334419537975 376.00143812341355 431.467248849527 368.9847564186931 416.4920755550413C361.96807471397267 401.51690226055564 367.8705208541547 377.15251238184857 380.96272596840646 367.0488594487953C394.0549310826583 356.94520651574214 424.8106592623813 353.01936818190023 431.82734096710175 367.9945414763859C438.8440226718222 382.9697147708716 427.7350032653165 428.82603832927333 414.6427981510647 438.9296912623265 "></path></g></svg>

<svg xmlns="http://www.w3.org/2000/svg" viewBox="0 0 800 800"><defs><linearGradient id="a" x1="50%" x2="50%" y1="0%" y2="100%"><stop offset="45%" stop-color="hsl(1.4, 100%, 67%)"/><stop offset="100%" stop-color="hsl(167, 52%, 78%)"/></linearGradient></defs><g fill="none" stroke="url(#a)" stroke-width="3"><path d="M1132.029-336.125c161.383 344.429-94.124 1399.124-395.245 1631.508-301.12 232.384-888.751-171.636-1050.135-516.065-161.383-344.429-25.627-904.81 275.494-1137.194 301.12-232.384 1008.502-322.678 1169.886 21.75C1293.412 8.305 1037.905 1063 736.784 1295.385"/><path d="M1100.201-304.12c154.367 329.454-90.031 1338.293-378.06 1560.573-288.028 222.28-850.11-164.173-1004.476-493.627-154.367-329.454-24.514-865.47 263.515-1087.75C269.208-547.206 945.834-633.575 1100.2-304.12c154.367 329.454-90.031 1338.293-378.06 1560.573"/><path d="M1068.374-272.114c147.35 314.478-85.939 1277.461-360.875 1489.638-274.937 212.177-811.469-156.711-958.82-471.19C-398.67 431.855-274.718-79.796.218-291.974c274.937-212.176 920.807-294.619 1068.157 19.86 147.35 314.478-85.939 1277.461-360.875 1489.638"/><path d="M1036.547-240.109C1176.88 59.395 954.7 976.521 692.856 1178.594c-261.844 202.073-772.827-149.249-913.16-448.752C-360.64 430.338-242.59-56.95 19.254-259.023c261.844-202.073 876.958-280.59 1017.292 18.914C1176.88 59.395 954.7 976.521 692.856 1178.594"/><path d="M1004.72-208.103c133.316 284.528-77.755 1155.798-326.507 1347.767C429.461 1331.634-55.973 997.878-189.29 713.35-322.607 428.82-210.46-34.102 38.292-226.071c248.752-191.97 833.11-266.56 966.427 17.968S926.965 947.695 678.213 1139.664"/><path d="M972.892-176.098c126.3 269.553-73.662 1094.967-309.322 1276.833C427.91 1282.6-31.974 966.41-158.274 696.858c-126.3-269.553-20.057-708.113 215.603-889.978 235.66-181.866 789.263-252.531 915.563 17.022 126.3 269.553-73.662 1094.967-309.322 1276.833"/><path d="M941.065-144.093c119.283 254.578-69.57 1034.136-292.137 1205.898C426.36 1233.567-7.976 934.943-127.26 680.365-246.543 425.787-146.201 11.593 76.366-160.169c222.568-171.762 745.415-238.502 864.699 16.076 119.283 254.578-69.57 1034.136-292.137 1205.898"/><path d="M909.237-112.087c112.267 239.603-65.477 973.304-274.952 1134.962C424.809 1184.534 16.023 903.476-96.244 663.873-208.511 424.271-114.072 34.44 95.404-127.218c209.475-161.658 701.566-224.472 813.833 15.13 112.267 239.604-65.477 973.305-274.952 1134.963"/><path d="M877.41-80.082c105.25 224.628-61.385 912.473-257.768 1064.028C423.259 1135.5 40.022 872.009-65.228 647.38-170.479 422.754-81.943 57.288 114.44-94.267 310.824-245.822 772.16-304.709 877.41-80.082c105.25 224.628-61.386 912.473-257.769 1064.028"/><path d="M845.583-48.076c98.233 209.652-57.293 851.64-240.584 993.092C421.71 1086.467 64.02 840.542-34.213 630.889c-98.234-209.652-15.6-550.754 167.691-692.205 183.291-141.45 613.871-196.413 712.105 13.24 98.233 209.652-57.293 851.64-240.584 993.092"/><path d="M813.755-16.07c91.217 194.676-53.2 790.809-223.399 922.156C420.158 1037.434 88.02 809.074-3.198 614.397-94.415 419.72-17.683 102.983 152.515-28.365c170.2-131.347 570.024-182.383 661.24 12.294 91.217 194.677-53.2 790.81-223.399 922.157"/><path d="M781.928 15.935c84.2 179.702-49.108 729.978-206.214 851.221C418.607 988.4 112.017 777.607 27.817 597.906c-84.2-179.703-13.37-472.076 143.736-593.32 157.106-121.243 526.175-168.353 610.375 11.349 84.2 179.702-49.108 729.978-206.214 851.221"/><path d="M750.1 47.94c77.184 164.727-45.015 669.147-189.03 780.287-144.013 111.14-425.054-82.087-502.238-246.814C-18.35 416.686 46.576 148.678 190.59 37.538 334.604-73.602 672.917-116.787 750.1 47.94c77.184 164.727-45.015 669.147-189.03 780.287"/><path d="M718.273 79.946C788.44 229.697 677.35 688.26 546.428 789.297c-130.922 101.037-386.414-74.624-456.58-224.376C19.68 415.169 78.705 171.525 209.628 70.489 340.548-30.548 648.106-69.806 718.272 79.946 788.44 229.697 677.35 688.26 546.428 789.297"/><path d="M686.446 111.951c63.15 134.777-36.831 547.483-154.66 638.416-117.83 90.933-347.773-67.162-410.923-201.938-63.15-134.777-10.028-354.056 107.801-444.99 117.83-90.932 394.632-126.265 457.782 8.512 63.15 134.777-36.831 547.483-154.66 638.416"/><path d="M654.619 143.956c56.133 119.802-32.739 486.652-137.477 567.482-104.737 80.829-309.13-59.7-365.264-179.501-56.133-119.802-8.914-314.717 95.824-395.546 104.737-80.83 350.783-112.236 406.917 7.565 56.133 119.802-32.739 486.652-137.477 567.482"/><path d="M622.791 175.962c49.117 104.826-28.646 425.82-120.291 496.546-91.646 70.726-270.49-52.237-319.607-157.063-49.116-104.827-7.8-275.377 83.846-346.103 91.646-70.725 306.936-98.206 356.052 6.62 49.117 104.826-28.646 425.82-120.291 496.546"/><path d="M590.964 207.967c42.1 89.851-24.554 364.99-103.107 425.611-78.553 60.622-231.848-44.774-273.948-134.625-42.1-89.851-6.686-236.038 71.867-296.66 78.554-60.622 263.088-84.177 305.188 5.674 42.1 89.851-24.554 364.99-103.107 425.611"/><path d="M559.137 239.973c35.083 74.876-20.462 304.157-85.923 354.676-65.461 50.518-193.207-37.313-228.29-112.189-35.084-74.875-5.571-196.697 59.89-247.216 65.46-50.518 219.24-70.147 254.323 4.729s-20.462 304.157-85.923 354.676"/><path d="M527.31 271.978c28.066 59.9-16.37 243.326-68.739 283.74-52.369 40.415-154.565-29.849-182.632-89.75-28.067-59.9-4.457-157.358 47.912-197.773 52.369-40.414 175.392-56.117 203.458 3.783 28.067 59.9-16.369 243.326-68.738 283.74"/><path d="M495.482 303.984c21.05 44.925-12.277 182.494-51.554 212.805-39.276 30.311-115.924-22.387-136.974-67.313-21.05-44.925-3.342-118.018 35.934-148.33 39.277-30.31 131.544-42.088 152.594 2.838 21.05 44.925-12.277 182.494-51.554 212.805"/><path d="M463.655 335.99c14.033 29.95-8.185 121.662-34.37 141.87-26.184 20.207-77.282-14.925-91.315-44.876-14.034-29.95-2.229-78.679 23.955-98.886 26.185-20.208 87.696-28.06 101.73 1.891 14.033 29.95-8.185 121.663-34.37 141.87"/><path d="M431.827 367.995c7.017 14.975-4.092 60.831-17.184 70.935-13.092 10.103-38.642-7.463-45.658-22.438-7.017-14.975-1.114-39.34 11.978-49.443 13.092-10.104 43.848-14.03 50.864.946 7.017 14.975-4.092 60.831-17.184 70.935"/></g></svg>
